X:39
T:An Anglezed boneto ruz - An dro
C:Loffet 3
M:4/4
L:1/4
K:C
EA/B/ cc|cc BA|cB Ac|B/A/G/A/ B2:|\
EA/B/ cc|BA G2|:AG/^F/ EA|Bc A2:|
